public/img/assets/icons/weather-conditions/wind-night.svg

<svg width="120" height="120" viewBox="0 0 120 120" fill="none" xmlns="http://www.w3.org/2000/svg">
<path d="M82.9375 44.8C82.8496 44.8 82.7764 44.8294 82.7031 44.8294C82.8643 44.0656 82.9375 43.2725 82.9375 42.45C82.9375 35.9581 77.6934 30.7 71.2188 30.7C67.6152 30.7 64.4365 32.3597 62.2832 34.93C59.5586 29.6425 54.124 26 47.7813 26C38.7139 26 31.375 33.3584 31.375 42.45C31.375 43.5222 31.4922 44.5503 31.6826 45.5638C26.0723 47.4144 22 52.6578 22 58.9C22 66.6844 28.2988 73 36.0625 73H82.9375C90.7012 73 97 66.6844 97 58.9C97 51.1156 90.7012 44.8 82.9375 44.8Z" fill="#FF99FF"/>
<path d="M50.2912 60H78.6961C79.28 59.9998 79.8421 59.7923 80.2687 59.4193C80.6954 59.0463 80.9548 58.5357 80.9946 57.9907C81.0344 57.4456 80.8516 56.9068 80.4831 56.483C80.1147 56.0592 79.588 55.782 79.0095 55.7076L78.6961 55.6874H50.2912C48.7718 55.6874 47.2866 55.2659 46.0233 54.4761C44.76 53.6863 43.7754 52.5638 43.194 51.2504C42.6125 49.9371 42.4604 48.4919 42.7568 47.0976C43.0532 45.7034 43.7849 44.4226 44.8592 43.4174C45.9335 42.4122 47.3023 41.7277 48.7925 41.4504C50.2827 41.173 51.8273 41.3154 53.231 41.8594C54.6347 42.4034 55.8344 43.3246 56.6785 44.5066C57.5226 45.6886 57.9732 47.0783 57.9732 48.4998C57.9732 49.0717 58.216 49.6202 58.6482 50.0246C59.0804 50.4289 59.6666 50.6561 60.2778 50.6561C60.889 50.6561 61.4752 50.4289 61.9074 50.0246C62.3396 49.6202 62.5824 49.0717 62.5824 48.4998C62.5823 46.2524 61.8784 44.0542 60.5577 42.177C59.237 40.2998 57.3573 38.8258 55.1511 37.9371C52.9448 37.0485 50.5085 36.7842 48.1435 37.1769C45.7784 37.5696 43.5881 38.6021 41.8434 40.1468C40.0986 41.6915 38.8759 43.6806 38.3262 45.8684C37.7765 48.0562 37.924 50.3468 38.7505 52.457C39.5769 54.5672 41.0461 56.4046 42.9765 57.7421C44.9068 59.0796 47.2137 59.8586 49.6121 59.9827L50.2881 60H78.6992H50.2912Z" fill="#D580FF"/>
<path d="M46.405 68H77.3839C78.0208 68.0002 78.6338 68.2392 79.0991 68.6688C79.5644 69.0983 79.8474 69.6864 79.8908 70.3142C79.9342 70.9419 79.7348 71.5626 79.3329 72.0507C78.931 72.5388 78.3566 72.858 77.7258 72.9437L77.3839 72.9669H46.405C44.748 72.9669 43.1282 73.4524 41.7504 74.362C40.3726 75.2717 39.2988 76.5645 38.6647 78.0772C38.0305 79.5898 37.8646 81.2543 38.1879 82.8601C38.5112 84.4659 39.3091 85.9409 40.4808 87.0987C41.6525 88.2564 43.1453 89.0448 44.7705 89.3642C46.3957 89.6837 48.0803 89.5197 49.6112 88.8932C51.1421 88.2666 52.4506 87.2056 53.3712 85.8442C54.2918 84.4829 54.7831 82.8824 54.7831 81.2451C54.7831 80.5864 55.0479 79.9548 55.5193 79.489C55.9907 79.0233 56.63 78.7616 57.2966 78.7616C57.9632 78.7616 58.6025 79.0233 59.0738 79.489C59.5452 79.9548 59.81 80.5864 59.81 81.2451C59.8099 83.8336 59.0423 86.3653 57.6019 88.5273C56.1615 90.6894 54.1115 92.3871 51.7053 93.4105C49.2991 94.434 46.6421 94.7384 44.0627 94.2861C41.4833 93.8338 39.0946 92.6446 37.1917 90.8656C35.2888 89.0865 33.9553 86.7955 33.3558 84.2758C32.7563 81.756 32.9171 79.1179 33.8185 76.6875C34.7199 74.2571 36.3222 72.1409 38.4275 70.6005C40.5328 69.06 43.0487 68.1629 45.6644 68.0198L46.4017 68H77.3873H46.405Z" fill="#D580FF"/>
<path fill-rule="evenodd" clip-rule="evenodd" d="M45.6568 73C45.9049 72.978 46.1545 72.9669 46.4049 72.9669H77.3839L77.7257 72.9437C78.3566 72.858 78.931 72.5388 79.3328 72.0507C79.7347 71.5626 79.9341 70.9419 79.8907 70.3142C79.8473 69.6864 79.5643 69.0984 79.099 68.6688C78.6337 68.2392 78.0207 68.0002 77.3839 68H46.4049H46.4016L45.6643 68.0199C43.0486 68.1629 40.5327 69.06 38.4274 70.6005C37.4824 71.2919 36.6387 72.0994 35.9143 72.9992C35.9636 72.9997 36.013 73 36.0625 73H45.6568Z" fill="#9966FF"/>
<rect x="66" y="78" width="28" height="5" rx="2.5" fill="#D580FF"/>
</svg>

<svg width="120" height="120" fill="none" xmlns="http://www.w3.org/2000/svg"><path d="M82.938 44.8c-.088 0-.162.03-.235.03.161-.764.234-1.557.234-2.38 0-6.492-5.244-11.75-11.718-11.75-3.604 0-6.782 1.66-8.936 4.23C59.56 29.642 54.124 26 47.781 26c-9.067 0-16.406 7.358-16.406 16.45 0 1.072.117 2.1.308 3.114C26.073 47.414 22 52.658 22 58.9 22 66.684 28.299 73 36.063 73h46.874C90.701 73 97 66.684 97 58.9s-6.299-14.1-14.063-14.1Z" fill="#F9F"/><path d="M50.291 60h28.405c.584 0 1.146-.208 1.573-.58.426-.374.686-.884.726-1.43a2.065 2.065 0 0 0-.512-1.507 2.347 2.347 0 0 0-1.474-.775l-.313-.02H50.291a8.063 8.063 0 0 1-4.268-1.212 7.313 7.313 0 0 1-2.829-3.226 6.758 6.758 0 0 1-.437-4.152 7.058 7.058 0 0 1 2.102-3.68 7.858 7.858 0 0 1 3.933-1.968 8.174 8.174 0 0 1 4.439.41 7.595 7.595 0 0 1 3.447 2.647 6.863 6.863 0 0 1 1.295 3.993c0 .572.243 1.12.675 1.525a2.388 2.388 0 0 0 1.63.631c.611 0 1.197-.227 1.63-.631.432-.405.674-.953.674-1.525 0-2.248-.704-4.446-2.024-6.323-1.321-1.877-3.2-3.351-5.407-4.24a13.071 13.071 0 0 0-7.008-.76c-2.365.393-4.555 1.425-6.3 2.97-1.744 1.544-2.967 3.534-3.517 5.721a10.8 10.8 0 0 0 .425 6.589c.826 2.11 2.295 3.948 4.226 5.285a12.826 12.826 0 0 0 6.635 2.24l.676.018H78.7 50.291ZM46.405 68h30.979c.637 0 1.25.24 1.715.669a2.464 2.464 0 0 1 .234 3.382 2.52 2.52 0 0 1-1.607.893l-.342.023H46.405a8.45 8.45 0 0 0-4.655 1.395 8.3 8.3 0 0 0-3.085 3.715 8.186 8.186 0 0 0-.477 4.783A8.249 8.249 0 0 0 40.48 87.1a8.41 8.41 0 0 0 4.29 2.265c1.625.32 3.31.156 4.84-.47a8.357 8.357 0 0 0 3.76-3.05 8.208 8.208 0 0 0 1.412-4.599c0-.659.265-1.29.736-1.756a2.53 2.53 0 0 1 1.778-.727c.666 0 1.306.261 1.777.727.471.466.736 1.097.736 1.756 0 2.589-.768 5.12-2.208 7.282a13.367 13.367 0 0 1-5.897 4.883 13.553 13.553 0 0 1-7.642.876 13.466 13.466 0 0 1-6.871-3.42 13.21 13.21 0 0 1-3.836-6.59c-.6-2.52-.439-5.158.462-7.588a13.26 13.26 0 0 1 4.61-6.088 13.506 13.506 0 0 1 7.236-2.58l.738-.02h30.985-30.982Z" fill="#D580FF"/><path fill-rule="evenodd" clip-rule="evenodd" d="M45.657 73a8.47 8.47 0 0 1 .748-.033h30.979l.342-.023a2.52 2.52 0 0 0 1.607-.893 2.464 2.464 0 0 0-.234-3.382A2.53 2.53 0 0 0 77.384 68H46.402l-.738.02a13.505 13.505 0 0 0-7.237 2.58 13.332 13.332 0 0 0-2.513 2.4h9.743Z" fill="#96F"/><rect x="66" y="78" width="28" height="5" rx="2.5" fill="#D580FF"/></svg>
